src/topics/icons/ios.svg

<svg height="163" preserveAspectRatio="xMidYMid" viewBox="0 0 256 163" width="256" xmlns="http://www.w3.org/2000/svg"><g><path d="m9.463808 13.26432c0 2.801664-1.705984 4.87424-4.632576 4.87424-2.43712 0-4.265984-2.072576-4.265984-4.87424 0-2.68288 1.949696-4.876288 4.509696-4.876288 2.68288 0 4.388864 2.193408 4.388864 4.876288zm-6.746112 146.50368v-112.06656h4.593664v112.06656z"/><path d="m160.100352 79.920576c0 56.500224-31.36512 82.182144-65.697792 82.182144-35.072 0-63.473664-27.78112-63.473664-79.845376 0-53.46304 29.390848-82.182144 65.943552-82.182144 35.811328-.002048 63.227904 28.248064 63.227904 79.845376zm-124.516352 1.16736c0 42.840064 20.762624 76.120064 59.035648 76.120064 38.539264 0 60.643328-34.304 60.643328-76.607488 0-39.22944-17.711104-75.030528-58.126336-75.030528s-61.55264 33.708032-61.55264 75.517952z"/><path d="m176.959488 147.625408c7.706624 5.136384 21.008384 10.09664 32.448512 10.09664 21.712896 0 41.023488-15.190016 41.023488-37.548032 0-20.748288-12.863488-31.574016-34.70336-40.873984-19.546112-8.323072-37.12-17.3568-37.12-39.53664 0-23.11168 18.208768-39.456768 42.9568-39.456768 13.307904 0 23.3472 3.735552 28.01664 7.00416l-1.857536 4.030464c-3.969024-2.799616-14.6944-6.367232-26.365952-6.367232-26.155008 0-37.548032 19.7632-37.548032 34.312192 0 20.094976 15.577088 26.814464 35.65568 36.386816 23.3472 11.440128 35.719168 21.52448 35.719168 43.472896 0 23.580672-16.807936 42.723328-46.692352 42.723328-12.376064 0-26.615808-4.202496-33.619968-9.572352z"/></g></svg>

<?xml version="1.0" encoding="UTF-8" standalone="no"?>
<svg width="256px" height="163px" viewBox="0 0 256 163" version="1.1" xmlns="http://www.w3.org/2000/svg" xmlns:xlink="http://www.w3.org/1999/xlink" preserveAspectRatio="xMidYMid">
	<g fill="#000000">
		<path d="M9.463808,13.26432 C9.463808,16.065984 7.757824,18.13856 4.831232,18.13856 C2.394112,18.13856 0.565248,16.065984 0.565248,13.26432 C0.565248,10.58144 2.514944,8.388032 5.074944,8.388032 C7.757824,8.388032 9.463808,10.58144 9.463808,13.26432 L9.463808,13.26432 L9.463808,13.26432 Z M2.717696,159.768 L2.717696,47.70144 L7.31136,47.70144 L7.31136,159.768 L2.717696,159.768 L2.717696,159.768 Z"></path>
		<path d="M160.100352,79.920576 C160.100352,136.4208 128.735232,162.10272 94.40256,162.10272 C59.33056,162.10272 30.928896,134.3216 30.928896,82.257344 C30.928896,28.794304 60.319744,0.0752 96.872448,0.0752 C132.683776,0.073152 160.100352,28.323264 160.100352,79.920576 L160.100352,79.920576 L160.100352,79.920576 Z M35.584,81.087936 C35.584,123.928 56.346624,157.208 94.619648,157.208 C133.158912,157.208 155.262976,122.904 155.262976,80.600512 C155.262976,41.371072 137.551872,5.569984 97.13664,5.569984 C56.721408,5.569984 35.584,39.278016 35.584,81.087936 L35.584,81.087936 L35.584,81.087936 Z"></path>
		<path d="M176.959488,147.625408 C184.666112,152.761792 197.967872,157.722048 209.408,157.722048 C231.120896,157.722048 250.431488,142.532032 250.431488,120.174016 C250.431488,99.425728 237.568,88.6 215.728128,79.300032 C196.182016,70.97696 178.608128,61.943232 178.608128,39.763392 C178.608128,16.651712 196.816896,0.306624 221.564928,0.306624 C234.872832,0.306624 244.912128,4.042176 249.581568,7.310784 L247.724032,11.341248 C243.755008,8.541632 233.029632,4.974016 221.35808,4.974016 C195.203072,4.974016 183.810048,24.737216 183.810048,39.286208 C183.810048,59.381184 199.387136,66.100672 219.465728,75.673024 C242.812928,87.113152 255.184896,97.197504 255.184896,119.14592 C255.184896,142.726592 238.37696,161.869248 208.492544,161.869248 C196.11648,161.869248 181.876736,157.666752 174.872576,152.296896 L176.959488,147.625408 L176.959488,147.625408 Z"></path>
	</g>
</svg>
